X:9
T:Polonäs efter Pehr Andersson Bild 04 nr 09
S:efter Pehr Andersson
B:Spelmansbok Ma 1 efter Pehr Andersson daterad 1731
B:https://katalog.visarkiv.se/lib/views/fmk/ShowRecord.aspx?hit=2_4
O:Måstorp, Närke
R:Slängpolska
Z:Nils L
M:3/4
L:1/16
K:G
(G2GA) (B2Bc) (d2ef) | g2(fe) d2ed c4 | cecA BdBG A2c2 | BAGF G4 G,4 ::
gbge gbge gbge | fafd fafd fafd | d2ef g2f2 e2d2 | fedc d4 D4 |
cecA cecA BdBG BdBG | G2AB c2B2 A2G2 | BAGF G4 G,4 ::

